src/assets/img/facebook.svg

<svg height="26" viewBox="0 0 26 26" width="26" xmlns="http://www.w3.org/2000/svg"><path d="m24 0h-22c-1.103 0-2 .897-2 2v22c0 1.103.897 2 2 2h10.5c.276 0 .5-.224.5-.5v-7c0-.276-.224-.5-.5-.5h-2c-.276 0-.5-.224-.5-.5v-4c0-.276.224-.5.5-.5h2c.276 0 .5-.224.5-.5v-2c0-3.033 2.467-5.5 5.5-5.5h3c.276 0 .5.224.5.5v4c0 .276-.224.5-.5.5h-2c-.827 0-1.5.673-1.5 1.5v1c0 .276.224.5.5.5h3c.144 0 .28.062.375.169.095.108.139.251.121.393l-.5 4c-.031.25-.245.438-.496.438h-2.5c-.276 0-.5.224-.5.5v7c0 .276.224.5.5.5h5.5c1.103 0 2-.897 2-2v-22c0-1.103-.897-2-2-2" fill="#303c42" fill-rule="evenodd"/></svg>

<svg xmlns="http://www.w3.org/2000/svg" width="26" height="26" viewBox="0 0 26 26">
  <path fill="#303C42" fill-rule="evenodd" d="M24,0 L2,0 C0.897,0 0,0.897 0,2 L0,24 C0,25.103 0.897,26 2,26 L12.5,26 C12.776,26 13,25.776 13,25.5 L13,18.5 C13,18.224 12.776,18 12.5,18 L10.5,18 C10.224,18 10,17.776 10,17.5 L10,13.5 C10,13.224 10.224,13 10.5,13 L12.5,13 C12.776,13 13,12.776 13,12.5 L13,10.5 C13,7.467 15.467,5 18.5,5 L21.5,5 C21.776,5 22,5.224 22,5.5 L22,9.5 C22,9.776 21.776,10 21.5,10 L19.5,10 C18.673,10 18,10.673 18,11.5 L18,12.5 C18,12.776 18.224,13 18.5,13 L21.5,13 C21.644,13 21.78,13.062 21.875,13.169 C21.97,13.277 22.014,13.42 21.996,13.562 L21.496,17.562 C21.465,17.812 21.251,18 21,18 L18.5,18 C18.224,18 18,18.224 18,18.5 L18,25.5 C18,25.776 18.224,26 18.5,26 L24,26 C25.103,26 26,25.103 26,24 L26,2 C26,0.897 25.103,0 24,0"/>
</svg>
